;FLAVOR:Marlin
;TIME:3078
;Filament used: 2.39403m
;Layer height: 0.2
;MINX:104.86
;MINY:101.114
;MINZ:0.2
;MAXX:195.14
;MAXY:198.306
;MAXZ:4.8
;Generated with Cura_SteamEngine main
M140 S60
M105
M190 S60
M104 S200
M105
M109 S200
M82 ;absolute extrusion mode
G28 ; home all axes
 M117 Purge extruder
 G92 E0 ; reset extruder
 G1 Z1.0 F3000 ; move z up little to prevent scratching of surface
 G1 X2 Y20 Z0.3 F5000.0 ; move to start-line position
 G1 X2 Y200.0 Z0.3 F1500.0 E15 ; draw 1st line
 G1 X2 Y200.0 Z0.4 F5000.0 ; move to side a little
 G1 X2 Y20 Z0.4 F1500.0 E30 ; draw 2nd line
 G92 E0 ; reset extruder
 G1 Z1.0 F3000 ; move z up little to prevent scratching of surface
G92 E0
G92 E0
G1 F1500 E-2
;LAYER_COUNT:23
;LAYER:0
M107
G1 F300 Z0.4
G0 F6000 X125.14 Y126.894 Z0.4
;TYPE:SKIRT
G1 F300 Z0.2
G1 F1500 E0
G1 F1200 X125.14 Y152.55 E0.93865
G1 X125.371 Y152.444 E0.94795
G1 X126.001 Y152.187 E0.97285
G1 X126.422 Y152.035 E0.98922
G1 X127.035 Y151.84 E1.01276
G1 X127.462 Y151.723 E1.02896
G1 X128.213 Y151.555 E1.05711
G1 X128.637 Y151.481 E1.07286
G1 X129.329 Y151.391 E1.09839
G1 X129.776 Y151.352 E1.1148
G1 X130.574 Y151.322 E1.14402
G1 X131.025 Y151.327 E1.16052
G1 X131.777 Y151.37 E1.18808
G1 X132.181 Y151.412 E1.20294
G1 X132.913 Y151.522 E1.23002
G1 X133.329 Y151.604 E1.24553
G1 X133.963 Y151.755 E1.26938
G1 X134.364 Y151.868 E1.28462
G1 X134.957 Y152.06 E1.30743
G1 X135.339 Y152.2 E1.32231
G1 X135.923 Y152.44 E1.34541
G1 X136.297 Y152.611 E1.36046
G1 X136.8 Y152.863 E1.38104
G1 X137.155 Y153.056 E1.39582
G1 X137.6 Y153.316 E1.41468
G1 X137.969 Y153.548 E1.43063
G1 X138.373 Y153.819 E1.44842
G1 X138.721 Y154.068 E1.46408
G1 X139.038 Y154.307 E1.4786
G1 X139.389 Y154.585 E1.49499
G1 X139.726 Y154.867 E1.51106
G1 X140.242 Y155.331 E1.53645
G1 X140.746 Y155.821 E1.56217
G1 X141.242 Y156.337 E1.58836
G1 X141.744 Y156.895 E1.61582
G1 X142.004 Y157.202 E1.63053
G1 X142.457 Y157.764 E1.65694
G1 X142.952 Y158.418 E1.68695
G1 X143.411 Y159.063 E1.71592
G1 X143.936 Y159.844 E1.75035
G1 X144.55 Y160.824 E1.79266
G1 X145.033 Y161.643 E1.82744
G1 X145.449 Y162.377 E1.85831
G1 X146.035 Y163.467 E1.90359
G1 X146.481 Y164.331 E1.93916
G1 X146.949 Y165.269 E1.97751
G1 X147.43 Y166.271 E2.01818
G1 X148.247 Y168.034 E2.08927
G1 X149.114 Y169.971 E2.16691
G1 X150.001 Y171.986 E2.24746
G1 X151.479 Y168.641 E2.38125
G1 X152 Y167.494 E2.42734
G1 X152.533 Y166.349 E2.47355
G1 X153.334 Y164.699 E2.54065
G1 X153.861 Y163.666 E2.58308
G1 X154.332 Y162.777 E2.61989
G1 X154.739 Y162.04 E2.65069
G1 X155.345 Y160.999 E2.69476
G1 X155.743 Y160.349 E2.72265
G1 X156.424 Y159.307 E2.76819
G1 X156.986 Y158.508 E2.80393
G1 X157.379 Y157.978 E2.82807
G1 X157.776 Y157.476 E2.85148
G1 X158.227 Y156.935 E2.87725
G1 X158.786 Y156.307 E2.90801
G1 X159.064 Y156.013 E2.92282
G1 X159.589 Y155.492 E2.94988
G1 X159.87 Y155.23 E2.96393
G1 X160.344 Y154.809 E2.98713
G1 X160.846 Y154.398 E3.01086
G1 X161.356 Y154.013 E3.03424
G1 X161.891 Y153.642 E3.05806
G1 X162.416 Y153.308 E3.08083
G1 X162.972 Y152.984 E3.10437
G1 X163.27 Y152.826 E3.11671
G1 X163.816 Y152.558 E3.13896
G1 X164.209 Y152.383 E3.1547
G1 X164.526 Y152.252 E3.16725
G1 X165.011 Y152.07 E3.18621
G1 X165.287 Y151.976 E3.19687
G1 X165.75 Y151.833 E3.2146
G1 X166.055 Y151.749 E3.22618
G1 X166.505 Y151.639 E3.24312
G1 X166.798 Y151.576 E3.25409
G1 X167.335 Y151.479 E3.27405
G1 X167.63 Y151.436 E3.28496
G1 X168.136 Y151.378 E3.30359
G1 X168.464 Y151.351 E3.31564
G1 X169.025 Y151.325 E3.33618
G1 X169.328 Y151.321 E3.34727
G1 X169.896 Y151.333 E3.36805
G1 X170.196 Y151.35 E3.37905
G1 X170.764 Y151.402 E3.39992
G1 X171.172 Y151.454 E3.41496
G1 X171.773 Y151.554 E3.43725
G1 X172.14 Y151.629 E3.45096
G1 X172.808 Y151.795 E3.47614
G1 X173.192 Y151.908 E3.49079
G1 X173.75 Y152.094 E3.51231
G1 X174.113 Y152.23 E3.52649
G1 X174.86 Y152.542 E3.55611
G1 X174.86 Y126.894 E4.49447
G1 X125.14 Y126.894 E6.31353
G0 F6000 X124.7 Y126.454
G1 F1200 X124.7 Y153.257 E7.29415
G1 X125.142 Y153.033 E7.31228
G1 X125.554 Y152.844 E7.32886
G1 X126.15 Y152.601 E7.35241
G1 X126.571 Y152.449 E7.36879
G1 X127.151 Y152.265 E7.39105
G1 X127.578 Y152.148 E7.40725
G1 X128.289 Y151.989 E7.4339
G1 X128.713 Y151.915 E7.44965
G1 X129.368 Y151.829 E7.47382
G1 X129.815 Y151.79 E7.49023
G1 X130.569 Y151.761 E7.51784
G1 X131.02 Y151.766 E7.53434
G1 X131.731 Y151.807 E7.5604
G1 X132.135 Y151.849 E7.57526
G1 X132.828 Y151.953 E7.6009
G1 X133.244 Y152.035 E7.61641
G1 X133.843 Y152.179 E7.63895
G1 X134.244 Y152.292 E7.65419
G1 X134.806 Y152.473 E7.67579
G1 X135.188 Y152.613 E7.69068
G1 X135.74 Y152.84 E7.71251
G1 X136.114 Y153.011 E7.72756
G1 X136.59 Y153.249 E7.74703
G1 X136.945 Y153.442 E7.76181
G1 X137.365 Y153.688 E7.77962
G1 X137.734 Y153.92 E7.79557
G1 X138.117 Y154.177 E7.81244
G1 X138.765 Y154.652 E7.84184
G1 X139.116 Y154.93 E7.85822
G1 X139.434 Y155.196 E7.87339
G1 X139.938 Y155.649 E7.89818
G1 X140.431 Y156.127 E7.9233
G1 X140.746 Y156.451 E7.93984
G1 X141.408 Y157.18 E7.97587
G1 X141.806 Y157.655 E7.99854
G1 X142.237 Y158.198 E8.0239
G1 X142.594 Y158.674 E8.04567
G1 X143.047 Y159.311 E8.07427
G1 X143.564 Y160.079 E8.10814
G1 X144.056 Y160.859 E8.14188
G1 X144.65 Y161.86 E8.18446
G1 X145.066 Y162.594 E8.21533
G1 X145.644 Y163.669 E8.25999
G1 X146.087 Y164.527 E8.29531
G1 X146.499 Y165.351 E8.32902
G1 X147.03 Y166.456 E8.37387
G1 X147.847 Y168.219 E8.44496
G1 X148.711 Y170.148 E8.52229
G1 X150 Y173.077 E8.63937
G1 X151.847 Y168.895 E8.80663
G1 X152.399 Y167.679 E8.85549
G1 X152.932 Y166.534 E8.9017
G1 X153.729 Y164.892 E8.96848
G1 X154.25 Y163.872 E9.01038
G1 X154.65 Y163.115 E9.04171
G1 X155.21 Y162.101 E9.08409
G1 X155.632 Y161.376 E9.11478
G1 X156.118 Y160.579 E9.14893
G1 X156.628 Y159.79 E9.1833
G1 X157.491 Y158.562 E9.23821
G1 X157.864 Y158.071 E9.26077
G1 X158.247 Y157.595 E9.28313
G1 X158.564 Y157.218 E9.30115
G1 X158.951 Y156.779 E9.32256
G1 X159.384 Y156.316 E9.34575
G1 X159.897 Y155.807 E9.37219
G1 X160.163 Y155.559 E9.3855
G1 X160.637 Y155.138 E9.40869
G1 X161.111 Y154.749 E9.43113
G1 X161.621 Y154.364 E9.4545
G1 X162.127 Y154.013 E9.47703
G1 X162.652 Y153.679 E9.4998
G1 X163.178 Y153.373 E9.52206
G1 X163.476 Y153.215 E9.5344
G1 X164.005 Y152.955 E9.55597
G1 X164.694 Y152.659 E9.58341
G1 X165.153 Y152.486 E9.60135
G1 X165.429 Y152.392 E9.61202
G1 X165.866 Y152.257 E9.62875
G1 X166.171 Y152.173 E9.64033
G1 X166.89 Y152.006 E9.66733
G1 X167.398 Y151.915 E9.68621
G1 X167.693 Y151.872 E9.69712
G1 X168.172 Y151.817 E9.71476
G1 X168.5 Y151.79 E9.7268
G1 X169.03 Y151.765 E9.74621
G1 X169.333 Y151.761 E9.7573
G1 X169.871 Y151.772 E9.77699
G1 X170.171 Y151.789 E9.78798
G1 X170.708 Y151.839 E9.80771
G1 X171.116 Y151.891 E9.82276
G1 X171.685 Y151.985 E9.84386
G1 X172.052 Y152.06 E9.85757
G1 X172.684 Y152.217 E9.88139
G1 X173.068 Y152.33 E9.89604
G1 X173.595 Y152.506 E9.91636
G1 X173.958 Y152.642 E9.93055
G1 X174.462 Y152.852 E9.95052
G1 X174.829 Y153.02 E9.96529
G1 X175.3 Y153.256 E9.98456
G1 X175.3 Y126.454 E10.96514
G1 X124.7 Y126.454 E12.8164
G0 F6000 X124.26 Y126.014
G1 F1200 X124.26 Y154.006 E13.84052
G1 X124.841 Y153.678 E13.86493
G1 X125.326 Y153.433 E13.88481
G1 X125.738 Y153.244 E13.9014
G1 X126.3 Y153.014 E13.92361
G1 X126.721 Y152.862 E13.93999
G1 X127.267 Y152.689 E13.96094
G1 X127.694 Y152.572 E13.97714
G1 X128.365 Y152.422 E14.0023
G1 X128.789 Y152.348 E14.01804
G1 X129.406 Y152.267 E14.04081
G1 X129.853 Y152.228 E14.05723
G1 X130.564 Y152.201 E14.08326
G1 X131.015 Y152.206 E14.09976
G1 X131.686 Y152.245 E14.12435
G1 X132.09 Y152.287 E14.13921
G1 X132.743 Y152.385 E14.16337
G1 X133.159 Y152.467 E14.17888
G1 X133.724 Y152.602 E14.20014
G1 X134.125 Y152.715 E14.21538
G1 X134.654 Y152.886 E14.23572
G1 X135.036 Y153.026 E14.2506
G1 X135.557 Y153.24 E14.27121
G1 X135.931 Y153.411 E14.28626
G1 X136.38 Y153.636 E14.30463
G1 X136.735 Y153.829 E14.31941
G1 X137.131 Y154.061 E14.33621
G1 X137.5 Y154.293 E14.35215
G1 X137.861 Y154.535 E14.36805
G1 X138.492 Y154.997 E14.39666
G1 X138.843 Y155.275 E14.41305
G1 X139.143 Y155.526 E14.42736
G1 X139.634 Y155.967 E14.4515
G1 X140.115 Y156.434 E14.47603
G1 X140.592 Y156.93 E14.50121
G1 X141.072 Y157.464 E14.52748
G1 X141.463 Y157.93 E14.54973
G1 X141.887 Y158.464 E14.57468
G1 X142.237 Y158.93 E14.596
G1 X142.582 Y159.412 E14.61769
G1 X143.056 Y160.107 E14.64847
G1 X143.792 Y161.272 E14.69888
G1 X144.267 Y162.077 E14.73308
G1 X144.764 Y162.957 E14.77005
G1 X145.201 Y163.771 E14.80386
G1 X145.694 Y164.724 E14.84311
G1 X146.106 Y165.548 E14.87682
G1 X146.631 Y166.641 E14.92118
G1 X147.487 Y168.49 E14.99573
G1 X148.309 Y170.325 E15.06929
G1 X150 Y174.167 E15.22287
G1 X152.28 Y169.005 E15.42933
G1 X152.798 Y167.865 E15.47514
G1 X153.331 Y166.72 E15.52134
G1 X154.191 Y164.951 E15.59331
G1 X154.639 Y164.077 E15.62924
G1 X155.039 Y163.32 E15.66057
G1 X155.51 Y162.465 E15.69628
G1 X156.095 Y161.459 E15.73886
G1 X156.493 Y160.809 E15.76674
G1 X157.144 Y159.813 E15.81027
G1 X157.843 Y158.826 E15.85452
G1 X158.208 Y158.345 E15.87661
G1 X158.464 Y158.024 E15.89163
G1 X158.9 Y157.502 E15.91652
G1 X159.279 Y157.072 E15.93749
G1 X159.704 Y156.618 E15.96024
G1 X160.204 Y156.122 E15.98601
G1 X160.455 Y155.888 E15.99856
G1 X160.929 Y155.467 E16.02176
G1 X161.376 Y155.101 E16.04289
G1 X161.886 Y154.716 E16.06627
G1 X162.363 Y154.385 E16.08751
G1 X162.888 Y154.051 E16.11028
G1 X163.384 Y153.762 E16.13128
G1 X163.682 Y153.604 E16.14362
G1 X164.195 Y153.352 E16.16453
G1 X164.862 Y153.065 E16.1911
G1 X165.294 Y152.903 E16.20798
G1 X165.57 Y152.809 E16.21865
G1 X165.983 Y152.682 E16.23446
G1 X166.69 Y152.499 E16.26117
G1 X166.983 Y152.436 E16.27214
G1 X167.462 Y152.35 E16.28994
G1 X167.757 Y152.307 E16.30085
G1 X168.208 Y152.255 E16.31746
G1 X168.536 Y152.228 E16.3295
G1 X169.036 Y152.205 E16.34781
G1 X169.339 Y152.201 E16.3589
G1 X169.846 Y152.212 E16.37745
G1 X170.146 Y152.229 E16.38845
G1 X170.653 Y152.275 E16.40707
G1 X171.061 Y152.327 E16.42212
G1 X171.597 Y152.416 E16.442
G1 X171.964 Y152.491 E16.4557
G1 X172.56 Y152.639 E16.47817
G1 X172.944 Y152.752 E16.49282
G1 X173.441 Y152.918 E16.51199
G1 X173.804 Y153.054 E16.52617
G1 X174.279 Y153.252 E16.545
G1 X174.646 Y153.42 E16.55976
G1 X175.073 Y153.633 E16.57722
G1 X175.436 Y153.829 E16.59232
G1 X175.74 Y154.005 E16.60517
G1 X175.74 Y126.014 E17.62925
G1 X124.26 Y126.014 E19.51271
G0 F6000 X123.82 Y125.574
G1 F1200 X123.82 Y154.805 E20.58215
G1 X124.318 Y154.483 E20.60385
G1 X124.665 Y154.278 E20.6186
G1 X125.054 Y154.063 E20.63486
G1 X125.509 Y153.833 E20.65351
G1 X125.921 Y153.644 E20.67009
G1 X126.449 Y153.428 E20.69097
G1 X126.87 Y153.276 E20.70734
G1 X127.384 Y153.113 E20.72707
G1 X127.811 Y152.996 E20.74327
G1 X128.44 Y152.856 E20.76684
G1 X128.864 Y152.782 E20.78259
G1 X129.444 Y152.706 E20.80399
G1 X129.891 Y152.667 E20.82041
G1 X130.56 Y152.641 E20.8449
G1 X131.011 Y152.646 E20.8614
G1 X131.64 Y152.683 E20.88446
G1 X132.044 Y152.725 E20.89932
G1 X132.658 Y152.817 E20.92203
G1 X133.074 Y152.899 E20.93754
G1 X133.605 Y153.026 E20.95752
G1 X134.006 Y153.139 E20.97276
G1 X134.503 Y153.3 E20.99188
G1 X134.885 Y153.44 E21.00676
G1 X135.374 Y153.641 E21.0261
G1 X135.748 Y153.812 E21.04115
G1 X136.169 Y154.022 E21.05836
G1 X136.524 Y154.215 E21.07315
G1 X136.897 Y154.433 E21.08895
G1 X137.266 Y154.665 E21.1049
G1 X137.605 Y154.893 E21.11985
G1 X137.953 Y155.142 E21.1355
G1 X138.569 Y155.62 E21.16403
G1 X138.851 Y155.856 E21.17748
G1 X139.33 Y156.286 E21.20103
G1 X139.8 Y156.741 E21.22496
G1 X140.267 Y157.226 E21.2496
G1 X140.736 Y157.748 E21.27527
G1 X141.119 Y158.204 E21.29706
G1 X141.426 Y158.588 E21.31505
G1 X141.879 Y159.187 E21.34252
G1 X142.319 Y159.805 E21.37028
G1 X142.692 Y160.354 E21.39456
G1 X143.414 Y161.496 E21.44399
G1 X143.822 Y162.186 E21.47332
G1 X144.376 Y163.165 E21.51447
G1 X144.813 Y163.979 E21.54828
G1 X145.3 Y164.921 E21.58707
G1 X145.759 Y165.841 E21.62469
G1 X146.232 Y166.826 E21.66467
G1 X147.085 Y168.669 E21.73897
G1 X147.906 Y170.502 E21.81245
G1 X149.999 Y175.257 E22.00252
G1 X152.681 Y169.186 E22.24535
G1 X153.197 Y168.051 E22.29096
G1 X153.779 Y166.803 E22.34134
G1 X154.521 Y165.276 E22.40346
G1 X155.028 Y164.283 E22.44425
G1 X155.428 Y163.526 E22.47557
G1 X155.971 Y162.544 E22.51663
G1 X156.393 Y161.819 E22.54732
G1 X156.969 Y160.88 E22.58762
G1 X157.504 Y160.066 E22.62326
G1 X158.066 Y159.267 E22.659
G1 X158.434 Y158.772 E22.68156
G1 X158.808 Y158.299 E22.70362
G1 X159.237 Y157.785 E22.72812
G1 X159.608 Y157.364 E22.74865
G1 X160.024 Y156.92 E22.77091
G1 X160.511 Y156.436 E22.79603
G1 X161.221 Y155.796 E22.831
G1 X161.641 Y155.452 E22.85086
G1 X162.151 Y155.067 E22.87424
G1 X162.599 Y154.756 E22.8942
G1 X163.124 Y154.422 E22.91696
G1 X163.59 Y154.151 E22.93668
G1 X164.149 Y153.861 E22.95972
G1 X164.713 Y153.603 E22.98241
G1 X165.03 Y153.472 E22.99496
G1 X165.436 Y153.319 E23.01084
G1 X165.712 Y153.225 E23.0215
G1 X166.1 Y153.106 E23.03635
G1 X166.782 Y152.929 E23.06213
G1 X167.075 Y152.866 E23.0731
G1 X167.525 Y152.785 E23.08982
G1 X167.82 Y152.742 E23.10073
G1 X168.244 Y152.694 E23.11634
G1 X168.572 Y152.667 E23.12838
G1 X169.042 Y152.645 E23.1456
G1 X169.345 Y152.641 E23.15668
G1 X169.821 Y152.651 E23.1741
G1 X170.121 Y152.668 E23.1851
G1 X170.597 Y152.712 E23.20259
G1 X171.005 Y152.764 E23.21763
G1 X171.509 Y152.847 E23.23632
G1 X171.876 Y152.922 E23.25003
G1 X172.435 Y153.061 E23.2711
G1 X172.819 Y153.174 E23.28575
G1 X173.287 Y153.331 E23.30381
G1 X173.65 Y153.467 E23.31799
G1 X174.096 Y153.652 E23.33565
G1 X174.463 Y153.82 E23.35042
G1 X174.864 Y154.02 E23.36682
G1 X175.227 Y154.216 E23.38191
G1 X175.584 Y154.423 E23.39701
G1 X175.919 Y154.631 E23.41143
G1 X176.18 Y154.805 E23.42291
G1 X176.18 Y125.574 E24.49236
G1 X123.82 Y125.574 E26.40801
G0 F6000 X123.38 Y125.134
G1 F1200 X123.38 Y155.664 E27.52499
G1 X123.914 Y155.272 E27.54922
G1 X124.221 Y155.065 E27.56277
G1 X124.553 Y154.855 E27.57714
G1 X124.878 Y154.663 E27.59095
G1 X125.267 Y154.448 E27.60721
G1 X125.693 Y154.233 E27.62467
G1 X126.105 Y154.044 E27.64125
G1 X126.598 Y153.842 E27.66075
G1 X127.019 Y153.69 E27.67712
G1 X127.5 Y153.538 E27.69558
G1 X127.927 Y153.421 E27.71178
G1 X128.516 Y153.289 E27.73386
G1 X128.94 Y153.215 E27.74961
G1 X129.482 Y153.144 E27.76961
G1 X129.929 Y153.105 E27.78602
G1 X130.555 Y153.081 E27.80894
G1 X131.006 Y153.086 E27.82544
G1 X131.595 Y153.12 E27.84703
G1 X131.999 Y153.162 E27.86189
G1 X132.573 Y153.248 E27.88312
G1 X132.989 Y153.33 E27.89864
G1 X133.485 Y153.449 E27.9173
G1 X133.886 Y153.562 E27.93254
G1 X134.351 Y153.713 E27.95043
G1 X134.733 Y153.853 E27.96531
G1 X135.191 Y154.041 E27.98343
G1 X135.565 Y154.212 E27.99847
G1 X135.959 Y154.409 E28.01459
G1 X136.314 Y154.602 E28.02937
G1 X136.663 Y154.806 E28.04416
G1 X137.032 Y155.038 E28.06011
G1 X137.349 Y155.25 E28.07406
G1 X137.697 Y155.499 E28.08972
G1 X138.296 Y155.965 E28.11748
G1 X138.56 Y156.185 E28.13005
G1 X138.844 Y156.436 E28.14392
G1 X139.317 Y156.882 E28.16771
G1 X139.941 Y157.522 E28.20041
G1 X140.401 Y158.033 E28.22556
G1 X140.661 Y158.34 E28.24028
G1 X141.082 Y158.863 E28.26485
G1 X141.419 Y159.304 E28.28515
G1 X141.866 Y159.925 E28.31315
G1 X142.447 Y160.783 E28.35106
G1 X143.035 Y161.72 E28.39153
G1 X143.502 Y162.511 E28.42514
G1 X143.918 Y163.245 E28.456
G1 X144.425 Y164.187 E28.49514
G1 X144.906 Y165.118 E28.53348
G1 X145.363 Y166.032 E28.57087
G1 X145.833 Y167.011 E28.6106
G1 X146.684 Y168.849 E28.6847
G1 X147.503 Y170.68 E28.75809
G1 X149.834 Y175.974 E28.96972
G1 X150 Y176.317 E28.98366
G1 X150.451 Y175.324 E29.02356
G1 X153.082 Y169.368 E29.26178
G1 X153.596 Y168.237 E29.30724
G1 X154.129 Y167.092 E29.35344
G1 X154.975 Y165.352 E29.42423
G1 X155.417 Y164.488 E29.45973
G1 X155.817 Y163.731 E29.49106
G1 X156.28 Y162.891 E29.52615
G1 X156.846 Y161.918 E29.56733
G1 X157.244 Y161.268 E29.59522
G1 X157.864 Y160.319 E29.63669
G1 X158.546 Y159.355 E29.6799
G1 X158.896 Y158.894 E29.70107
G1 X159.257 Y158.445 E29.72215
G1 X159.692 Y157.931 E29.74679
G1 X159.936 Y157.657 E29.76021
G1 X160.343 Y157.223 E29.78198
G1 X160.819 Y156.751 E29.8065
G1 X161.513 Y156.125 E29.8407
G1 X161.906 Y155.803 E29.85928
G1 X162.416 Y155.418 E29.88266
