;FLAVOR:Marlin
;TIME:4609
;Filament used: 2.54425m
;Layer height: 0.12
;MINX:105.36
;MINY:59.239
;MINZ:0.12
;MAXX:194.64
;MAXY:241.842
;MAXZ:3.48
;Generated with Cura_SteamEngine main
M140 S60
M105
M190 S60
M104 S200
M105
M109 S200
M82 ;absolute extrusion mode
G28 ; home all axes
 M117 Purge extruder
 G92 E0 ; reset extruder
 G1 Z1.0 F3000 ; move z up little to prevent scratching of surface
 G1 X2 Y20 Z0.3 F5000.0 ; move to start-line position
 G1 X2 Y200.0 Z0.3 F1500.0 E15 ; draw 1st line
 G1 X2 Y200.0 Z0.4 F5000.0 ; move to side a little
 G1 X2 Y20 Z0.4 F1500.0 E30 ; draw 2nd line
 G92 E0 ; reset extruder
 G1 Z1.0 F3000 ; move z up little to prevent scratching of surface
G92 E0
G92 E0
G1 F1500 E-2
;LAYER_COUNT:29
;LAYER:0
M107
G0 F6000 X106.758 Y73.226 Z0.12
G0 X105.36 Y77.788
;TYPE:SKIRT
G1 F1500 E0
G1 F1200 X105.4 Y76.982 E0.01771
G1 X105.52 Y76.184 E0.03543
G1 X105.717 Y75.402 E0.05313
G1 X105.992 Y74.644 E0.07083
G1 X106.34 Y73.916 E0.08855
G1 X106.758 Y73.226 E0.10625
G1 X107.243 Y72.581 E0.12397
G1 X107.789 Y71.988 E0.14166
G1 X108.391 Y71.451 E0.15937
G1 X109.044 Y70.976 E0.1771
G1 X109.74 Y70.569 E0.1948
G1 X110.473 Y70.232 E0.21251
G1 X111.236 Y69.969 E0.23022
G1 X112.021 Y69.784 E0.24793
G1 X112.82 Y69.676 E0.26563
G1 X113.5 Y69.648 E0.28057
G1 X116.5 Y69.648 E0.34642
G1 X117.306 Y69.688 E0.36414
G1 X118.104 Y69.808 E0.38185
G1 X118.886 Y70.005 E0.39955
G1 X119.644 Y70.28 E0.41725
G1 X120.372 Y70.628 E0.43497
G1 X120.604 Y70.768 E0.44091
G1 X121.133 Y70.798 E0.45255
G1 X121.93 Y70.922 E0.47025
G1 X122.711 Y71.124 E0.48796
G1 X123.468 Y71.403 E0.50567
G1 X124.194 Y71.755 E0.52338
G1 X124.882 Y72.177 E0.5411
G1 X125.524 Y72.665 E0.5588
G1 X126.114 Y73.215 E0.57651
G1 X126.648 Y73.82 E0.59422
G1 X127.119 Y74.475 E0.61193
G1 X127.522 Y75.173 E0.62962
G1 X127.948 Y76.155 E0.65312
G1 X128.684 Y78.216 E0.70116
G1 X129.244 Y79.734 E0.73668
G1 X129.499 Y80.397 E0.75227
G1 X130.035 Y81.731 E0.78383
G1 X130.308 Y82.379 E0.79927
G1 X130.698 Y83.26 E0.82042
G1 X131.042 Y82.551 E0.83772
G1 X131.628 Y81.294 E0.86816
G1 X132.537 Y79.271 E0.91685
G1 X134.4 Y75.037 E1.01839
G1 X135.431 Y72.759 E1.07328
G1 X136.009 Y71.533 E1.10303
G1 X136.737 Y70.06 E1.1391
G1 X137.311 Y68.964 E1.16626
G1 X138.147 Y67.484 E1.20357
G1 X138.574 Y66.783 E1.22159
G1 X139.158 Y65.888 E1.24505
G1 X139.367 Y65.587 E1.25309
G1 X139.798 Y64.993 E1.2692
G1 X140.058 Y64.653 E1.2786
G1 X140.49 Y64.119 E1.29368
G1 X140.828 Y63.728 E1.30502
G1 X141.265 Y63.253 E1.31919
G1 X141.705 Y62.81 E1.3329
G1 X142.147 Y62.398 E1.34616
G1 X142.581 Y62.021 E1.35878
G1 X143.121 Y61.597 E1.37385
G1 X143.347 Y61.432 E1.38
G1 X143.771 Y61.142 E1.39127
G1 X144.394 Y60.76 E1.40731
G1 X144.624 Y60.631 E1.4131
G1 X145.213 Y60.332 E1.4276
G1 X145.466 Y60.216 E1.43371
G1 X146.004 Y59.992 E1.44651
G1 X146.263 Y59.895 E1.45258
G1 X146.95 Y59.672 E1.46843
G1 X147.207 Y59.601 E1.47429
G1 X147.948 Y59.433 E1.49096
G1 X148.212 Y59.386 E1.49685
G1 X148.96 Y59.288 E1.51341
G1 X149.223 Y59.266 E1.5192
G1 X150.026 Y59.239 E1.53684
G1 X150.289 Y59.243 E1.54262
G1 X151.027 Y59.288 E1.55885
G1 X151.29 Y59.316 E1.56465
G1 X152.065 Y59.436 E1.58187
G1 X152.328 Y59.49 E1.58776
G1 X153.11 Y59.692 E1.60549
G1 X153.441 Y59.795 E1.6131
G1 X154.253 Y60.096 E1.63211
G1 X154.579 Y60.237 E1.63991
G1 X155.32 Y60.603 E1.65805
G1 X155.642 Y60.783 E1.66615
G1 X156.2 Y61.125 E1.68051
G1 X156.518 Y61.338 E1.68892
G1 X157.05 Y61.727 E1.70338
G1 X157.361 Y61.974 E1.7121
G1 X157.765 Y62.316 E1.72372
G1 X158.074 Y62.596 E1.73287
G1 X158.383 Y62.891 E1.74225
G1 X158.689 Y63.199 E1.75178
G1 X159.007 Y63.538 E1.76199
G1 X159.538 Y64.15 E1.77977
G1 X160.072 Y64.818 E1.79855
G1 X160.592 Y65.525 E1.81781
G1 X160.92 Y66.003 E1.83054
G1 X161.494 Y66.892 E1.85377
G1 X161.916 Y67.591 E1.87169
G1 X162.316 Y68.286 E1.88929
G1 X162.645 Y68.881 E1.90422
G1 X163.114 Y69.767 E1.92622
G1 X163.531 Y70.592 E1.94652
G1 X164.064 Y71.684 E1.97319
G1 X164.904 Y73.487 E2.01685
G1 X165.822 Y75.536 E2.06614
G1 X167.485 Y79.319 E2.15685
G1 X168.284 Y81.098 E2.19966
G1 X169.007 Y82.654 E2.23733
G1 X169.3 Y83.263 E2.25216
G1 X169.574 Y82.654 E2.26682
G1 X169.778 Y82.177 E2.27821
G1 X170.312 Y80.872 E2.30916
G1 X170.846 Y79.493 E2.34162
G1 X171.399 Y77.986 E2.37686
G1 X172.053 Y76.154 E2.41956
G1 X172.362 Y75.408 E2.43729
G1 X172.743 Y74.697 E2.455
G1 X173.193 Y74.027 E2.47271
G1 X173.706 Y73.405 E2.49041
G1 X174.279 Y72.837 E2.50812
G1 X174.905 Y72.328 E2.52583
G1 X175.578 Y71.884 E2.54353
G1 X176.292 Y71.508 E2.56125
G1 X177.04 Y71.206 E2.57896
G1 X177.814 Y70.978 E2.59667
G1 X178.607 Y70.828 E2.61438
G1 X179.392 Y70.773 E2.63166
G1 X179.74 Y70.569 E2.64051
G1 X180.473 Y70.232 E2.65822
G1 X181.236 Y69.969 E2.67594
G1 X182.021 Y69.784 E2.69364
G1 X182.82 Y69.676 E2.71134
G1 X183.5 Y69.648 E2.72628
G1 X186.5 Y69.648 E2.79214
G1 X187.306 Y69.688 E2.80985
G1 X188.104 Y69.808 E2.82757
G1 X188.886 Y70.005 E2.84527
G1 X189.644 Y70.28 E2.86297
G1 X190.372 Y70.628 E2.88068
G1 X191.062 Y71.046 E2.89839
G1 X191.707 Y71.531 E2.91611
G1 X192.3 Y72.077 E2.9338
G1 X192.837 Y72.679 E2.95151
G1 X193.312 Y73.332 E2.96924
G1 X193.719 Y74.028 E2.98693
G1 X194.056 Y74.761 E3.00464
G1 X194.319 Y75.524 E3.02236
G1 X194.504 Y76.309 E3.04006
G1 X194.612 Y77.108 E3.05776
G1 X194.64 Y77.788 E3.0727
G1 X194.64 Y147.288 E4.59835
G1 X194.6 Y148.094 E4.61606
G1 X194.48 Y148.892 E4.63377
G1 X194.283 Y149.674 E4.65148
G1 X194.008 Y150.432 E4.66918
G1 X193.66 Y151.16 E4.68689
G1 X193.242 Y151.85 E4.7046
G1 X192.757 Y152.495 E4.72232
G1 X192.211 Y153.088 E4.74001
G1 X191.609 Y153.625 E4.75772
G1 X190.956 Y154.1 E4.77544
G1 X190.26 Y154.507 E4.79314
G1 X189.527 Y154.844 E4.81085
G1 X188.764 Y155.107 E4.82857
G1 X187.979 Y155.292 E4.84627
G1 X187.18 Y155.4 E4.86397
G1 X186.5 Y155.428 E4.87891
G1 X183.5 Y155.428 E4.94477
G1 X182.694 Y155.388 E4.96248
G1 X181.896 Y155.268 E4.9802
G1 X181.114 Y155.071 E4.9979
G1 X180.356 Y154.796 E5.0156
G1 X179.628 Y154.448 E5.03331
G1 X178.938 Y154.03 E5.05102
G1 X178.293 Y153.545 E5.06874
G1 X177.7 Y152.999 E5.08643
G1 X177.163 Y152.397 E5.10414
G1 X176.688 Y151.744 E5.12187
G1 X176.281 Y151.048 E5.13956
G1 X175.944 Y150.315 E5.15727
G1 X175.681 Y149.552 E5.17499
G1 X175.496 Y148.767 E5.19269
G1 X175.45 Y148.428 E5.2002
G1 X124.55 Y148.428 E6.31755
G1 X124.48 Y148.892 E6.32785
G1 X124.283 Y149.674 E6.34555
G1 X124.008 Y150.432 E6.36325
G1 X123.66 Y151.16 E6.38096
G1 X123.242 Y151.85 E6.39867
G1 X122.757 Y152.495 E6.41639
G1 X122.211 Y153.088 E6.43408
G1 X121.609 Y153.625 E6.45179
G1 X120.956 Y154.1 E6.46952
G1 X120.26 Y154.507 E6.48721
G1 X119.527 Y154.844 E6.50492
G1 X118.764 Y155.107 E6.52264
G1 X117.979 Y155.292 E6.54034
G1 X117.18 Y155.4 E6.55804
G1 X116.5 Y155.428 E6.57298
G1 X113.5 Y155.428 E6.63884
G1 X112.694 Y155.388 E6.65655
G1 X111.896 Y155.268 E6.67427
G1 X111.114 Y155.071 E6.69197
G1 X110.356 Y154.796 E6.70967
G1 X109.628 Y154.448 E6.72738
G1 X108.938 Y154.03 E6.74509
G1 X108.293 Y153.545 E6.76281
G1 X107.7 Y152.999 E6.7805
G1 X107.163 Y152.397 E6.79821
G1 X106.688 Y151.744 E6.81594
G1 X106.281 Y151.048 E6.83364
G1 X105.944 Y150.315 E6.85135
G1 X105.681 Y149.552 E6.86906
G1 X105.496 Y148.767 E6.88677
G1 X105.388 Y147.968 E6.90446
G1 X105.36 Y147.288 E6.9194
G1 X105.36 Y77.788 E8.44505
G0 F6000 X105.8 Y77.788
G1 F1200 X105.84 Y77.004 E8.46228
G1 X105.959 Y76.229 E8.47949
G1 X106.157 Y75.47 E8.49671
G1 X106.431 Y74.735 E8.51393
G1 X106.779 Y74.031 E8.53117
G1 X107.196 Y73.367 E8.54838
G1 X107.679 Y72.748 E8.56562
G1 X108.222 Y72.182 E8.58283
G1 X108.82 Y71.674 E8.60006
G1 X109.466 Y71.229 E8.61728
G1 X110.155 Y70.853 E8.63451
G1 X110.878 Y70.548 E8.65173
G1 X111.628 Y70.319 E8.66895
G1 X112.398 Y70.167 E8.68618
G1 X113.5 Y70.088 E8.71043
G1 X116.5 Y70.088 E8.77628
G1 X117.284 Y70.128 E8.79352
G1 X118.059 Y70.247 E8.81073
G1 X118.818 Y70.445 E8.82795
G1 X119.553 Y70.719 E8.84517
G1 X120.257 Y71.067 E8.86241
G1 X120.471 Y71.201 E8.86795
G1 X121.109 Y71.237 E8.88198
G1 X121.883 Y71.361 E8.89918
G1 X122.641 Y71.563 E8.9164
G1 X123.375 Y71.842 E8.93364
G1 X124.077 Y72.193 E8.95087
G1 X124.739 Y72.614 E8.96809
G1 X125.355 Y73.1 E8.98531
G1 X125.918 Y73.646 E9.00253
G1 X126.422 Y74.247 E9.01975
G1 X126.863 Y74.896 E9.03697
G1 X127.236 Y75.587 E9.05421
G1 X127.533 Y76.303 E9.07123
G1 X128.242 Y78.288 E9.1175
G1 X128.83 Y79.882 E9.15479
G1 X129.099 Y80.58 E9.17121
G1 X129.652 Y81.959 E9.20383
G1 X129.873 Y82.482 E9.21629
G1 X130.436 Y83.754 E9.24683
G1 X130.684 Y84.276 E9.25951
G1 X130.859 Y83.936 E9.26791
G1 X131.443 Y82.733 E9.29726
G1 X132.036 Y81.461 E9.32807
G1 X132.917 Y79.499 E9.37528
G1 X134.8 Y75.218 E9.47795
G1 X135.778 Y73.056 E9.53004
G1 X136.407 Y71.72 E9.56245
G1 X137.043 Y70.429 E9.59404
G1 X137.817 Y68.955 E9.63059
G1 X138.394 Y67.933 E9.65635
G1 X138.95 Y67.012 E9.67997
G1 X139.526 Y66.13 E9.70309
G1 X139.723 Y65.845 E9.7107
G1 X140.154 Y65.251 E9.72681
G1 X140.4 Y64.93 E9.73569
G1 X140.832 Y64.396 E9.75076
G1 X141.151 Y64.026 E9.76149
G1 X141.588 Y63.551 E9.77566
G1 X142.005 Y63.131 E9.78865
G1 X142.447 Y62.719 E9.80191
G1 X142.858 Y62.363 E9.81385
G1 X143.381 Y61.952 E9.82845
G1 X143.607 Y61.787 E9.83459
G1 X144.008 Y61.513 E9.84526
G1 X144.609 Y61.144 E9.86074
G1 X144.839 Y61.015 E9.86653
G1 X145.397 Y60.732 E9.88026
G1 X145.65 Y60.616 E9.88637
G1 X146.158 Y60.404 E9.89845
G1 X146.417 Y60.307 E9.90452
G1 X147.068 Y60.096 E9.91955
G1 X147.325 Y60.025 E9.9254
G1 X148.025 Y59.866 E9.94116
G1 X148.289 Y59.819 E9.94704
G1 X148.997 Y59.727 E9.96272
G1 X149.26 Y59.705 E9.96851
G1 X150.019 Y59.679 E9.98518
G1 X150.282 Y59.683 E9.99095
G1 X150.98 Y59.725 E10.0063
G1 X151.243 Y59.753 E10.01211
G1 X151.977 Y59.867 E10.02842
G1 X152.24 Y59.921 E10.03431
G1 X152.979 Y60.112 E10.05106
G1 X153.31 Y60.215 E10.05867
G1 X154.079 Y60.5 E10.07668
G1 X154.405 Y60.641 E10.08447
G1 X155.105 Y60.987 E10.10162
G1 X155.427 Y61.167 E10.10971
G1 X155.955 Y61.491 E10.12331
G1 X156.273 Y61.704 E10.13171
G1 X156.777 Y62.071 E10.1454
G1 X157.088 Y62.318 E10.15412
G1 X157.469 Y62.642 E10.1651
G1 X157.778 Y62.922 E10.17425
G1 X158.07 Y63.201 E10.18312
G1 X158.376 Y63.509 E10.19265
G1 X158.677 Y63.83 E10.20231
G1 X159.197 Y64.427 E10.21969
G1 X159.72 Y65.082 E10.23809
G1 X160.229 Y65.774 E10.25694
G1 X160.675 Y66.429 E10.27434
G1 X161.004 Y66.938 E10.28764
G1 X161.535 Y67.811 E10.31007
G1 X161.862 Y68.378 E10.32444
G1 X162.325 Y69.215 E10.34544
G1 X162.653 Y69.834 E10.36082
G1 X163.185 Y70.885 E10.38667
G1 X163.665 Y71.87 E10.41073
G1 X164.505 Y73.673 E10.45439
G1 X165.419 Y75.713 E10.50346
G1 X167.083 Y79.499 E10.59424
G1 X167.876 Y81.265 E10.63674
G1 X168.59 Y82.802 E10.67394
G1 X168.961 Y83.57 E10.69266
G1 X169.316 Y84.279 E10.71007
G1 X169.478 Y83.942 E10.71828
G1 X169.955 Y82.881 E10.74381
G1 X170.195 Y82.319 E10.75723
G1 X170.736 Y80.998 E10.78857
G1 X171.246 Y79.68 E10.81959
G1 X171.812 Y78.138 E10.85565
G1 X172.468 Y76.302 E10.89844
G1 X172.769 Y75.577 E10.91568
G1 X173.142 Y74.887 E10.93289
G1 X173.584 Y74.239 E10.95011
G1 X174.089 Y73.639 E10.96733
G1 X174.653 Y73.093 E10.98456
G1 X175.27 Y72.608 E11.00179
G1 X175.932 Y72.187 E11.01901
G1 X176.634 Y71.837 E11.03623
G1 X177.368 Y71.56 E11.05345
G1 X178.127 Y71.358 E11.07069
G1 X178.902 Y71.236 E11.08791
G1 X179.517 Y71.201 E11.10144
G1 X180.155 Y70.853 E11.11739
G1 X180.878 Y70.548 E11.13462
G1 X181.628 Y70.319 E11.15183
G1 X182.398 Y70.167 E11.16906
G1 X183.5 Y70.088 E11.19331
G1 X186.5 Y70.088 E11.25917
G1 X187.284 Y70.128 E11.2764
G1 X188.059 Y70.247 E11.29361
G1 X188.818 Y70.445 E11.31083
G1 X189.553 Y70.719 E11.32805
G1 X190.257 Y71.067 E11.34529
G1 X190.921 Y71.484 E11.3625
G1 X191.54 Y71.967 E11.37973
G1 X192.106 Y72.51 E11.39695
G1 X192.614 Y73.108 E11.41418
G1 X193.059 Y73.754 E11.4314
G1 X193.435 Y74.443 E11.44863
G1 X193.74 Y75.166 E11.46585
G1 X193.969 Y75.916 E11.48307
G1 X194.121 Y76.686 E11.5003
G1 X194.2 Y77.788 E11.52455
G1 X194.2 Y147.288 E13.05019
G1 X194.16 Y148.072 E13.06742
G1 X194.041 Y148.847 E13.08464
G1 X193.843 Y149.606 E13.10185
G1 X193.569 Y150.341 E13.11907
G1 X193.221 Y151.045 E13.13631
G1 X192.804 Y151.709 E13.15352
G1 X192.321 Y152.328 E13.17076
G1 X191.778 Y152.894 E13.18798
G1 X191.18 Y153.402 E13.2052
G1 X190.534 Y153.847 E13.22242
G1 X189.845 Y154.223 E13.23965
G1 X189.122 Y154.528 E13.25688
G1 X188.372 Y154.757 E13.27409
G1 X187.602 Y154.909 E13.29132
G1 X186.5 Y154.988 E13.31557
G1 X183.5 Y154.988 E13.38143
G1 X182.716 Y154.948 E13.39866
G1 X181.941 Y154.829 E13.41587
G1 X181.182 Y154.631 E13.43309
G1 X180.447 Y154.357 E13.45031
G1 X179.743 Y154.009 E13.46755
G1 X179.079 Y153.592 E13.48476
G1 X178.46 Y153.109 E13.502
G1 X177.894 Y152.566 E13.51921
G1 X177.386 Y151.968 E13.53644
G1 X176.941 Y151.322 E13.55366
G1 X176.565 Y150.633 E13.57089
G1 X176.26 Y149.91 E13.58811
G1 X176.031 Y149.16 E13.60533
G1 X175.879 Y148.39 E13.62256
G1 X175.85 Y147.988 E13.6314
G1 X124.173 Y147.988 E14.7658
G1 X124.041 Y148.847 E14.78488
G1 X123.843 Y149.606 E14.8021
G1 X123.569 Y150.341 E14.81932
G1 X123.221 Y151.045 E14.83656
G1 X122.804 Y151.709 E14.85377
G1 X122.321 Y152.328 E14.871
G1 X121.778 Y152.894 E14.88822
G1 X121.18 Y153.402 E14.90545
G1 X120.534 Y153.847 E14.92267
G1 X119.845 Y154.223 E14.9399
G1 X119.122 Y154.528 E14.95712
G1 X118.372 Y154.757 E14.97434
G1 X117.602 Y154.909 E14.99157
G1 X116.5 Y154.988 E15.01582
G1 X113.5 Y154.988 E15.08167
G1 X112.716 Y154.948 E15.09891
G1 X111.941 Y154.829 E15.11612
G1 X111.182 Y154.631 E15.13334
G1 X110.447 Y154.357 E15.15056
G1 X109.743 Y154.009 E15.16779
G1 X109.079 Y153.592 E15.18501
G1 X108.46 Y153.109 E15.20224
G1 X107.894 Y152.566 E15.21946
G1 X107.386 Y151.968 E15.23668
G1 X106.941 Y151.322 E15.2539
G1 X106.565 Y150.633 E15.27113
G1 X106.26 Y149.91 E15.28836
G1 X106.031 Y149.16 E15.30557
G1 X105.879 Y148.39 E15.3228
G1 X105.8 Y147.288 E15.34706
G1 X105.8 Y77.788 E16.8727
G0 F6000 X106.24 Y77.788
G1 F1200 X106.28 Y77.027 E16.88943
G1 X106.399 Y76.275 E16.90614
G1 X106.597 Y75.539 E16.92287
G1 X106.871 Y74.828 E16.9396
G1 X107.217 Y74.15 E16.95631
G1 X107.633 Y73.511 E16.97304
G1 X108.114 Y72.92 E16.98977
G1 X108.654 Y72.382 E17.0065
G1 X109.247 Y71.904 E17.02322
G1 X109.887 Y71.491 E17.03994
G1 X110.566 Y71.147 E17.05665
G1 X111.279 Y70.876 E17.0734
G1 X112.015 Y70.681 E17.09011
G1 X112.768 Y70.565 E17.10684
G1 X113.5 Y70.528 E17.12292
G1 X116.5 Y70.528 E17.18878
G1 X117.261 Y70.568 E17.20551
G1 X118.013 Y70.687 E17.22222
G1 X118.749 Y70.885 E17.23895
G1 X119.46 Y71.159 E17.25568
G1 X120.138 Y71.505 E17.27239
G1 X120.336 Y71.634 E17.27757
G1 X121.083 Y71.677 E17.294
G1 X121.835 Y71.801 E17.31073
G1 X122.57 Y72.003 E17.32746
G1 X123.279 Y72.281 E17.34418
G1 X123.956 Y72.631 E17.36091
G1 X124.592 Y73.05 E17.37763
G1 X125.18 Y73.534 E17.39435
G1 X125.715 Y74.077 E17.41108
G1 X126.189 Y74.673 E17.4278
G1 X126.599 Y75.315 E17.44452
G1 X126.939 Y75.997 E17.46125
G1 X127.119 Y76.451 E17.47197
G1 X127.829 Y78.44 E17.51833
G1 X128.434 Y80.078 E17.55666
G1 X128.668 Y80.688 E17.571
G1 X129.232 Y82.093 E17.60424
G1 X129.506 Y82.743 E17.61972
G1 X130.016 Y83.893 E17.64734
G1 X130.532 Y84.982 E17.67379
G1 X130.674 Y85.258 E17.6806
G1 X131.27 Y84.097 E17.70925
G1 X131.833 Y82.939 E17.73752
G1 X132.427 Y81.662 E17.76843
G1 X133.318 Y79.68 E17.81613
G1 X135.201 Y75.4 E17.91878
G1 X136.227 Y73.134 E17.97338
G1 X136.805 Y71.908 E18.00314
G1 X137.438 Y70.624 E18.03456
G1 X138.2 Y69.172 E18.07056
G1 X138.777 Y68.15 E18.09632
G1 X139.326 Y67.241 E18.11963
G1 X139.893 Y66.372 E18.14241
G1 X140.079 Y66.103 E18.14959
G1 X140.51 Y65.509 E18.1657
G1 X140.742 Y65.207 E18.17406
G1 X141.174 Y64.673 E18.18914
G1 X141.475 Y64.324 E18.19925
G1 X141.912 Y63.849 E18.21342
G1 X142.305 Y63.453 E18.22567
G1 X142.747 Y63.041 E18.23893
G1 X143.134 Y62.705 E18.25018
G1 X143.64 Y62.307 E18.26431
G1 X143.866 Y62.142 E18.27046
G1 X144.244 Y61.884 E18.2805
G1 X144.473 Y61.738 E18.28647
G1 X145.055 Y61.399 E18.30125
G1 X145.58 Y61.132 E18.31418
G1 X145.833 Y61.016 E18.32029
G1 X146.313 Y60.816 E18.3317
G1 X146.572 Y60.719 E18.33778
G1 X147.185 Y60.52 E18.35192
G1 X147.442 Y60.449 E18.35778
G1 X148.103 Y60.299 E18.37266
