;FLAVOR:Marlin
;TIME:13565
;Filament used: 15.9434m
;Layer height: 0.2
;MINX:126.86
;MINY:101.86
;MINZ:0.2
;MAXX:173.14
;MAXY:198.14
;MAXZ:40.4
;Generated with Cura_SteamEngine main
M140 S60
M105
M190 S60
M104 S200
M105
M109 S200
M82 ;absolute extrusion mode
G28 ; home all axes
 M117 Purge extruder
 G92 E0 ; reset extruder
 G1 Z1.0 F3000 ; move z up little to prevent scratching of surface
 G1 X2 Y20 Z0.3 F5000.0 ; move to start-line position
 G1 X2 Y200.0 Z0.3 F1500.0 E15 ; draw 1st line
 G1 X2 Y200.0 Z0.4 F5000.0 ; move to side a little
 G1 X2 Y20 Z0.4 F1500.0 E30 ; draw 2nd line
 G92 E0 ; reset extruder
 G1 Z1.0 F3000 ; move z up little to prevent scratching of surface
G92 E0
G92 E0
G1 F1500 E-2
;LAYER_COUNT:203
;LAYER:0
M107
G0 F6000 X128.743 Y104.793 Z0.2
G0 X126.86 Y110
;TYPE:SKIRT
G1 F1500 E0
G1 F1200 X126.9 Y109.194 E0.02952
G1 X127.02 Y108.396 E0.05905
G1 X127.217 Y107.614 E0.08855
G1 X127.492 Y106.856 E0.11805
G1 X127.84 Y106.128 E0.14758
G1 X128.258 Y105.438 E0.17709
G1 X128.743 Y104.793 E0.20662
G1 X129.289 Y104.2 E0.23611
G1 X129.891 Y103.663 E0.26562
G1 X130.544 Y103.188 E0.29516
G1 X131.24 Y102.781 E0.32466
G1 X131.973 Y102.444 E0.35418
G1 X132.736 Y102.181 E0.38371
G1 X133.521 Y101.996 E0.41321
G1 X134.32 Y101.888 E0.44271
G1 X135 Y101.86 E0.46761
G1 X165 Y101.86 E1.56519
G1 X165.806 Y101.9 E1.59472
G1 X166.604 Y102.02 E1.62424
G1 X167.386 Y102.217 E1.65375
G1 X168.144 Y102.492 E1.68325
G1 X168.872 Y102.84 E1.71277
G1 X169.562 Y103.258 E1.74229
G1 X170.207 Y103.743 E1.77181
G1 X170.8 Y104.289 E1.8013
G1 X171.337 Y104.891 E1.83082
G1 X171.812 Y105.544 E1.86036
G1 X172.219 Y106.24 E1.88986
G1 X172.556 Y106.973 E1.91937
G1 X172.819 Y107.736 E1.9489
G1 X173.004 Y108.521 E1.97841
G1 X173.112 Y109.32 E2.00791
G1 X173.14 Y110 E2.03281
G1 X173.14 Y190 E4.9597
G1 X173.1 Y190.806 E4.98922
G1 X172.98 Y191.604 E5.01875
G1 X172.783 Y192.386 E5.04825
G1 X172.508 Y193.144 E5.07775
G1 X172.16 Y193.872 E5.10727
G1 X171.742 Y194.562 E5.13679
G1 X171.257 Y195.207 E5.16631
G1 X170.711 Y195.8 E5.1958
G1 X170.109 Y196.337 E5.22532
G1 X169.456 Y196.812 E5.25486
G1 X168.76 Y197.219 E5.28436
G1 X168.027 Y197.556 E5.31388
G1 X167.264 Y197.819 E5.3434
G1 X166.479 Y198.004 E5.37291
G1 X165.68 Y198.112 E5.40241
G1 X165 Y198.14 E5.42731
G1 X135 Y198.14 E6.52489
G1 X134.194 Y198.1 E6.55442
G1 X133.396 Y197.98 E6.58394
G1 X132.614 Y197.783 E6.61344
G1 X131.856 Y197.508 E6.64295
G1 X131.128 Y197.16 E6.67247
G1 X130.438 Y196.742 E6.70198
G1 X129.793 Y196.257 E6.73151
G1 X129.2 Y195.711 E6.761
G1 X128.663 Y195.109 E6.79051
G1 X128.188 Y194.456 E6.82006
G1 X127.781 Y193.76 E6.84955
G1 X127.444 Y193.027 E6.87907
G1 X127.181 Y192.264 E6.9086
G1 X126.996 Y191.479 E6.9381
G1 X126.888 Y190.68 E6.9676
G1 X126.86 Y190 E6.9925
G1 X126.86 Y110 E9.91939
G0 F6000 X127.3 Y110
G1 F1200 X127.34 Y109.216 E9.94811
G1 X127.459 Y108.441 E9.9768
G1 X127.657 Y107.682 E10.0055
G1 X127.931 Y106.947 E10.0342
G1 X128.279 Y106.243 E10.06293
G1 X128.696 Y105.579 E10.09162
G1 X129.179 Y104.96 E10.12034
G1 X129.722 Y104.394 E10.14904
G1 X130.32 Y103.886 E10.17775
G1 X130.966 Y103.441 E10.20644
G1 X131.655 Y103.065 E10.23516
G1 X132.378 Y102.76 E10.26387
G1 X133.128 Y102.531 E10.29256
G1 X133.898 Y102.379 E10.32128
G1 X135 Y102.3 E10.3617
G1 X165 Y102.3 E11.45928
G1 X165.784 Y102.34 E11.488
G1 X166.559 Y102.459 E11.51669
G1 X167.318 Y102.657 E11.54539
G1 X168.053 Y102.931 E11.57409
G1 X168.757 Y103.279 E11.60282
G1 X169.421 Y103.696 E11.6315
G1 X170.04 Y104.179 E11.66023
G1 X170.606 Y104.722 E11.68893
G1 X171.114 Y105.32 E11.71763
G1 X171.559 Y105.966 E11.74633
G1 X171.935 Y106.655 E11.77505
G1 X172.24 Y107.378 E11.80376
G1 X172.469 Y108.128 E11.83245
G1 X172.621 Y108.898 E11.86116
G1 X172.7 Y110 E11.90159
G1 X172.7 Y190 E14.82848
G1 X172.66 Y190.784 E14.8572
G1 X172.541 Y191.559 E14.88588
G1 X172.343 Y192.318 E14.91458
G1 X172.069 Y193.053 E14.94328
G1 X171.721 Y193.757 E14.97201
G1 X171.304 Y194.421 E15.0007
G1 X170.821 Y195.04 E15.02943
G1 X170.278 Y195.606 E15.05812
G1 X169.68 Y196.114 E15.08683
G1 X169.034 Y196.559 E15.11553
G1 X168.345 Y196.935 E15.14425
G1 X167.622 Y197.24 E15.17295
G1 X166.872 Y197.469 E15.20164
G1 X166.102 Y197.621 E15.23036
G1 X165 Y197.7 E15.27078
G1 X135 Y197.7 E16.36837
G1 X134.216 Y197.66 E16.39709
G1 X133.441 Y197.541 E16.42577
G1 X132.682 Y197.343 E16.45447
G1 X131.947 Y197.069 E16.48317
G1 X131.243 Y196.721 E16.5119
G1 X130.579 Y196.304 E16.54059
G1 X129.96 Y195.821 E16.56931
G1 X129.394 Y195.278 E16.59801
G1 X128.886 Y194.68 E16.62672
G1 X128.441 Y194.034 E16.65542
G1 X128.065 Y193.345 E16.68413
G1 X127.76 Y192.622 E16.71284
G1 X127.531 Y191.872 E16.74153
G1 X127.379 Y191.102 E16.77025
G1 X127.3 Y190 E16.81067
G1 X127.3 Y110 E19.73756
G0 F6000 X127.74 Y110
G1 F1200 X127.78 Y109.239 E19.76544
G1 X127.899 Y108.487 E19.7933
G1 X128.097 Y107.751 E19.82118
G1 X128.371 Y107.04 E19.84906
G1 X128.717 Y106.362 E19.87691
G1 X129.133 Y105.723 E19.9048
G1 X129.614 Y105.132 E19.93268
G1 X130.154 Y104.594 E19.96057
G1 X130.747 Y104.116 E19.98844
G1 X131.387 Y103.703 E20.0163
G1 X132.066 Y103.359 E20.04415
G1 X132.779 Y103.088 E20.07206
G1 X133.515 Y102.893 E20.09992
G1 X134.268 Y102.777 E20.12779
G1 X135 Y102.74 E20.15461
G1 X165 Y102.74 E21.25219
G1 X165.761 Y102.78 E21.28007
G1 X166.513 Y102.899 E21.30793
G1 X167.249 Y103.097 E21.33581
G1 X167.96 Y103.371 E21.36369
G1 X168.638 Y103.717 E21.39154
G1 X169.277 Y104.133 E21.41943
G1 X169.868 Y104.614 E21.44731
G1 X170.406 Y105.154 E21.4752
G1 X170.884 Y105.747 E21.50307
G1 X171.297 Y106.387 E21.53093
G1 X171.641 Y107.066 E21.55878
G1 X171.912 Y107.779 E21.58669
G1 X172.107 Y108.515 E21.61454
G1 X172.223 Y109.268 E21.64242
G1 X172.26 Y110 E21.66923
G1 X172.26 Y190 E24.59613
G1 X172.22 Y190.761 E24.62401
G1 X172.101 Y191.513 E24.65186
G1 X171.903 Y192.249 E24.67975
G1 X171.629 Y192.96 E24.70762
G1 X171.283 Y193.638 E24.73547
G1 X170.867 Y194.277 E24.76337
G1 X170.386 Y194.868 E24.79125
G1 X169.846 Y195.406 E24.81914
G1 X169.253 Y195.884 E24.847
G1 X168.613 Y196.297 E24.87487
G1 X167.934 Y196.641 E24.90272
G1 X167.221 Y196.912 E24.93062
G1 X166.485 Y197.107 E24.95848
G1 X165.732 Y197.223 E24.98636
G1 X165 Y197.26 E25.01317
G1 X135 Y197.26 E26.11075
G1 X134.239 Y197.22 E26.13864
G1 X133.487 Y197.101 E26.16649
G1 X132.751 Y196.903 E26.19438
G1 X132.04 Y196.629 E26.22225
G1 X131.362 Y196.283 E26.2501
G1 X130.723 Y195.867 E26.278
G1 X130.132 Y195.386 E26.30588
G1 X129.594 Y194.846 E26.33376
G1 X129.116 Y194.253 E26.36163
G1 X128.703 Y193.613 E26.3895
G1 X128.359 Y192.934 E26.41735
G1 X128.088 Y192.221 E26.44525
G1 X127.893 Y191.485 E26.47311
G1 X127.777 Y190.732 E26.50098
G1 X127.74 Y190 E26.5278
G1 X127.74 Y110 E29.45469
G0 F6000 X128.18 Y110
G1 F1200 X128.22 Y109.263 E29.48169
G1 X128.339 Y108.534 E29.50872
G1 X128.537 Y107.823 E29.53572
G1 X128.81 Y107.137 E29.56273
G1 X129.156 Y106.484 E29.58977
G1 X129.57 Y105.873 E29.61677
G1 X130.048 Y105.31 E29.64379
G1 X130.584 Y104.802 E29.67081
G1 X131.172 Y104.356 E29.69781
G1 X131.805 Y103.975 E29.72484
G1 X132.475 Y103.665 E29.75185
G1 X133.175 Y103.429 E29.77888
G1 X133.896 Y103.27 E29.80589
G1 X134.63 Y103.19 E29.83291
G1 X135 Y103.18 E29.84645
G1 X165 Y103.18 E30.94403
G1 X165.737 Y103.22 E30.97104
G1 X166.466 Y103.339 E30.99806
G1 X167.177 Y103.537 E31.02506
G1 X167.863 Y103.81 E31.05208
G1 X168.516 Y104.156 E31.07911
G1 X169.127 Y104.57 E31.10611
G1 X169.69 Y105.048 E31.13314
G1 X170.198 Y105.584 E31.16015
G1 X170.644 Y106.172 E31.18715
G1 X171.025 Y106.805 E31.21419
G1 X171.335 Y107.475 E31.24119
G1 X171.571 Y108.175 E31.26822
G1 X171.73 Y108.896 E31.29523
G1 X171.81 Y109.63 E31.32225
G1 X171.82 Y110 E31.33579
G1 X171.82 Y190 E34.26268
G1 X171.78 Y190.737 E34.28968
G1 X171.661 Y191.466 E34.31671
G1 X171.463 Y192.177 E34.34371
G1 X171.19 Y192.863 E34.37072
G1 X170.844 Y193.516 E34.39776
G1 X170.43 Y194.127 E34.42476
G1 X169.952 Y194.69 E34.45178
G1 X169.416 Y195.198 E34.4788
G1 X168.828 Y195.644 E34.5058
G1 X168.195 Y196.025 E34.53283
G1 X167.525 Y196.335 E34.55984
G1 X166.825 Y196.571 E34.58687
G1 X166.104 Y196.73 E34.61388
G1 X165.37 Y196.81 E34.6409
G1 X165 Y196.82 E34.65444
G1 X135 Y196.82 E35.75202
G1 X134.263 Y196.78 E35.77903
G1 X133.534 Y196.661 E35.80605
G1 X132.823 Y196.463 E35.83305
G1 X132.137 Y196.19 E35.86006
G1 X131.484 Y195.844 E35.8871
G1 X130.873 Y195.43 E35.9141
G1 X130.31 Y194.952 E35.94113
G1 X129.802 Y194.416 E35.96814
G1 X129.356 Y193.828 E35.99514
G1 X128.975 Y193.195 E36.02217
G1 X128.665 Y192.525 E36.04918
G1 X128.429 Y191.825 E36.07621
G1 X128.27 Y191.104 E36.10322
G1 X128.19 Y190.37 E36.13024
G1 X128.18 Y190 E36.14378
G1 X128.18 Y110 E39.07067
G0 F6000 X128.62 Y110
G1 F1200 X128.66 Y109.287 E39.0968
G1 X128.779 Y108.583 E39.12292
G1 X128.977 Y107.897 E39.14904
G1 X129.25 Y107.237 E39.17517
G1 X129.594 Y106.611 E39.20131
G1 X130.007 Y106.028 E39.22745
G1 X130.482 Y105.495 E39.25357
G1 X131.014 Y105.018 E39.27971
G1 X131.596 Y104.604 E39.30584
G1 X132.22 Y104.258 E39.33194
G1 X132.879 Y103.983 E39.35807
G1 X133.565 Y103.783 E39.38421
G1 X134.269 Y103.662 E39.41035
G1 X135 Y103.62 E39.43713
G1 X165 Y103.62 E40.53472
G1 X165.713 Y103.66 E40.56085
G1 X166.417 Y103.779 E40.58697
G1 X167.103 Y103.977 E40.61309
G1 X167.763 Y104.25 E40.63922
G1 X168.389 Y104.594 E40.66535
G1 X168.972 Y105.007 E40.69149
G1 X169.505 Y105.482 E40.71761
G1 X169.982 Y106.014 E40.74376
G1 X170.396 Y106.596 E40.76989
G1 X170.742 Y107.22 E40.79599
G1 X171.017 Y107.879 E40.82212
G1 X171.217 Y108.565 E40.84826
G1 X171.338 Y109.269 E40.87439
G1 X171.38 Y110 E40.90118
G1 X171.38 Y190 E43.82807
G1 X171.34 Y190.713 E43.8542
G1 X171.221 Y191.417 E43.88032
G1 X171.023 Y192.103 E43.90645
G1 X170.75 Y192.763 E43.93258
G1 X170.406 Y193.389 E43.95871
G1 X169.993 Y193.972 E43.98485
G1 X169.518 Y194.505 E44.01097
G1 X168.986 Y194.982 E44.03711
G1 X168.404 Y195.396 E44.06324
G1 X167.78 Y195.742 E44.08935
G1 X167.121 Y196.017 E44.11547
G1 X166.435 Y196.217 E44.14162
G1 X165.731 Y196.338 E44.16775
G1 X165 Y196.38 E44.19454
G1 X135 Y196.38 E45.29212
G1 X134.287 Y196.34 E45.31825
G1 X133.583 Y196.221 E45.34437
G1 X132.897 Y196.023 E45.37049
G1 X132.237 Y195.75 E45.39663
G1 X131.611 Y195.406 E45.42276
G1 X131.028 Y194.993 E45.4489
G1 X130.495 Y194.518 E45.47502
G1 X130.018 Y193.986 E45.50116
G1 X129.604 Y193.404 E45.52729
G1 X129.258 Y192.78 E45.5534
G1 X128.983 Y192.121 E45.57952
G1 X128.783 Y191.435 E45.60566
G1 X128.662 Y190.731 E45.6318
G1 X128.62 Y190 E45.65859
G1 X128.62 Y110 E48.58548
G0 F6000 X129.06 Y110
G1 F1200 X129.1 Y109.312 E48.61069
G1 X129.219 Y108.633 E48.63591
G1 X129.416 Y107.973 E48.66111
G1 X129.689 Y107.34 E48.68633
G1 X130.033 Y106.743 E48.71154
G1 X130.443 Y106.19 E48.73673
G1 X130.915 Y105.688 E48.76194
G1 X131.442 Y105.244 E48.78715
G1 X132.017 Y104.864 E48.81237
G1 X132.632 Y104.553 E48.83758
G1 X133.278 Y104.315 E48.86277
G1 X133.948 Y104.154 E48.88798
G1 X134.632 Y104.071 E48.91319
G1 X135 Y104.06 E48.92666
G1 X165 Y104.06 E50.02424
G1 X165.688 Y104.1 E50.04945
G1 X166.367 Y104.219 E50.07468
G1 X167.027 Y104.416 E50.09987
G1 X167.66 Y104.689 E50.1251
G1 X168.257 Y105.033 E50.1503
G1 X168.81 Y105.443 E50.17549
G1 X169.312 Y105.915 E50.2007
G1 X169.756 Y106.442 E50.22591
G1 X170.136 Y107.017 E50.25113
G1 X170.447 Y107.632 E50.27634
G1 X170.685 Y108.278 E50.30153
G1 X170.846 Y108.948 E50.32674
G1 X170.929 Y109.632 E50.35195
G1 X170.94 Y110 E50.36542
G1 X170.94 Y190 E53.29231
G1 X170.9 Y190.688 E53.31752
G1 X170.781 Y191.367 E53.34274
G1 X170.584 Y192.027 E53.36794
G1 X170.311 Y192.66 E53.39317
G1 X169.967 Y193.257 E53.41837
G1 X169.557 Y193.81 E53.44356
G1 X169.085 Y194.312 E53.46877
G1 X168.558 Y194.756 E53.49398
G1 X167.983 Y195.136 E53.5192
G1 X167.368 Y195.447 E53.54441
G1 X166.722 Y195.685 E53.5696
G1 X166.052 Y195.846 E53.59481
G1 X165.368 Y195.929 E53.62002
G1 X165 Y195.94 E53.63349
G1 X135 Y195.94 E54.73107
G1 X134.312 Y195.9 E54.75629
G1 X133.633 Y195.781 E54.78151
G1 X132.973 Y195.584 E54.80671
G1 X132.34 Y195.311 E54.83193
G1 X131.743 Y194.967 E54.85714
G1 X131.19 Y194.557 E54.88232
G1 X130.688 Y194.085 E54.90753
G1 X130.244 Y193.558 E54.93274
G1 X129.864 Y192.983 E54.95796
G1 X129.553 Y192.368 E54.98317
G1 X129.315 Y191.722 E55.00836
G1 X129.154 Y191.052 E55.03357
G1 X129.071 Y190.368 E55.05878
G1 X129.06 Y190 E55.07225
G1 X129.06 Y110 E57.99914
G0 F6000 X129.5 Y110
G1 F1200 X129.54 Y109.338 E58.02341
G1 X129.659 Y108.686 E58.04765
G1 X129.856 Y108.053 E58.07191
G1 X130.128 Y107.448 E58.09618
G1 X130.47 Y106.88 E58.12043
G1 X130.879 Y106.358 E58.1447
G1 X131.347 Y105.888 E58.16896
G1 X131.868 Y105.479 E58.1932
G1 X132.435 Y105.135 E58.21746
G1 X133.039 Y104.861 E58.24172
G1 X133.672 Y104.663 E58.26599
G1 X134.323 Y104.542 E58.29022
G1 X135 Y104.5 E58.31503
G1 X165 Y104.5 E59.41262
G1 X165.662 Y104.54 E59.43688
G1 X166.314 Y104.659 E59.46113
G1 X166.947 Y104.856 E59.48538
G1 X167.552 Y105.128 E59.50965
G1 X168.12 Y105.47 E59.53391
G1 X168.642 Y105.879 E59.55817
G1 X169.112 Y106.347 E59.58244
G1 X169.521 Y106.868 E59.60667
G1 X169.865 Y107.435 E59.63093
G1 X170.139 Y108.039 E59.6552
G1 X170.337 Y108.672 E59.67947
G1 X170.458 Y109.323 E59.70369
G1 X170.5 Y110 E59.72851
G1 X170.5 Y190 E62.6554
G1 X170.46 Y190.662 E62.67966
G1 X170.341 Y191.314 E62.70391
G1 X170.144 Y191.947 E62.72817
G1 X169.872 Y192.552 E62.75244
G1 X169.53 Y193.12 E62.77669
G1 X169.121 Y193.642 E62.80095
G1 X168.653 Y194.112 E62.82522
G1 X168.132 Y194.521 E62.84945
G1 X167.565 Y194.865 E62.87372
G1 X166.961 Y195.139 E62.89798
G1 X166.328 Y195.337 E62.92225
G1 X165.677 Y195.458 E62.94647
G1 X165 Y195.5 E62.97129
G1 X135 Y195.5 E64.06888
G1 X134.338 Y195.46 E64.09314
G1 X133.686 Y195.341 E64.11739
G1 X133.053 Y195.144 E64.14164
G1 X132.448 Y194.872 E64.16591
G1 X131.88 Y194.53 E64.19017
G1 X131.358 Y194.121 E64.21443
G1 X130.888 Y193.653 E64.2387
G1 X130.479 Y193.132 E64.26293
G1 X130.135 Y192.565 E64.28719
G1 X129.861 Y191.961 E64.31146
G1 X129.663 Y191.328 E64.33573
G1 X129.542 Y190.677 E64.35995
G1 X129.5 Y190 E64.38477
G1 X129.5 Y110 E67.31166
G0 F6000 X129.94 Y110
G1 F1200 X129.98 Y109.365 E67.33494
G1 X130.099 Y108.741 E67.35818
G1 X130.296 Y108.136 E67.38146
G1 X130.567 Y107.561 E67.40471
G1 X130.908 Y107.024 E67.42799
G1 X131.313 Y106.534 E67.45124
G1 X131.777 Y106.099 E67.47451
G1 X132.292 Y105.726 E67.49778
G1 X132.85 Y105.42 E67.52106
G1 X133.441 Y105.186 E67.54432
G1 X134.057 Y105.029 E67.56758
G1 X135 Y104.94 E67.60223
G1 X165 Y104.94 E68.69981
G1 X165.635 Y104.98 E68.72309
G1 X166.259 Y105.099 E68.74633
G1 X166.864 Y105.296 E68.76961
G1 X167.439 Y105.567 E68.79287
G1 X167.976 Y105.908 E68.81614
G1 X168.466 Y106.313 E68.8394
G1 X168.901 Y106.777 E68.86267
G1 X169.274 Y107.292 E68.88593
G1 X169.58 Y107.85 E68.90922
G1 X169.814 Y108.441 E68.93247
G1 X169.971 Y109.057 E68.95573
G1 X170.06 Y110 E68.99038
G1 X170.06 Y190 E71.91728
G1 X170.02 Y190.635 E71.94055
G1 X169.901 Y191.259 E71.9638
G1 X169.704 Y191.864 E71.98707
G1 X169.433 Y192.439 E72.01033
G1 X169.092 Y192.976 E72.0336
G1 X168.687 Y193.466 E72.05686
G1 X168.223 Y193.901 E72.08013
G1 X167.708 Y194.274 E72.1034
G1 X167.15 Y194.58 E72.12668
G1 X166.559 Y194.814 E72.14993
G1 X165.943 Y194.971 E72.17319
G1 X165 Y195.06 E72.20785
G1 X135 Y195.06 E73.30543
G1 X134.365 Y195.02 E73.32871
G1 X133.741 Y194.901 E73.35195
G1 X133.136 Y194.704 E73.37523
G1 X132.561 Y194.433 E73.39849
G1 X132.024 Y194.092 E73.42176
G1 X131.534 Y193.687 E73.44502
G1 X131.099 Y193.223 E73.46829
G1 X130.726 Y192.708 E73.49155
G1 X130.42 Y192.15 E73.51483
G1 X130.186 Y191.559 E73.53809
G1 X130.029 Y190.943 E73.56135
G1 X129.94 Y190 E73.596
G1 X129.94 Y110 E76.52289
G0 F6000 X130.38 Y110
G1 F1200 X130.42 Y109.394 E76.54511
G1 X130.539 Y108.798 E76.56735
G1 X130.735 Y108.223 E76.58957
G1 X131.006 Y107.679 E76.61181
G1 X131.345 Y107.174 E76.63406
G1 X131.747 Y106.719 E76.65628
G1 X132.206 Y106.321 E76.6785
G1 X132.713 Y105.986 E76.70074
G1 X133.259 Y105.72 E76.72296
G1 X133.836 Y105.529 E76.74519
G1 X134.433 Y105.415 E76.76743
G1 X135 Y105.38 E76.78821
G1 X165 Y105.38 E77.8858
G1 X165.606 Y105.42 E77.90802
